X: 36543
T: Setting Sail
R: jig
M: 6/8
K: Dmajor
|2 D3 AGF|:~E3 BAG|~F3 dcB|ABA GFE|
~D3 AGF|~E3 BAG|~F3 dcB|ABA GFE|1 ~D3 AGF:|2 D3 DEF||

